public/assets/svgs/userbadge/black.svg

<svg xmlns="http://www.w3.org/2000/svg" viewBox="0 0 24 24"><path fill="none" d="M0 0h24v24H0z"/><path d="M20 7h-5V4c0-1.1-.9-2-2-2h-2c-1.1 0-2 .9-2 2v3H4c-1.1 0-2 .9-2 2v11c0 1.1.9 2 2 2h16c1.1 0 2-.9 2-2V9c0-1.1-.9-2-2-2zM9 12c.83 0 1.5.67 1.5 1.5S9.83 15 9 15s-1.5-.67-1.5-1.5S8.17 12 9 12zm3 6H6v-.75c0-1 2-1.5 3-1.5s3 .5 3 1.5V18zm1-9h-2V4h2v5zm5 7.5h-4V15h4v1.5zm0-3h-4V12h4v1.5z"/></svg>

<svg xmlns="http://www.w3.org/2000/svg" enable-background="new 0 0 24 24" height="24px" viewBox="0 0 24 24" width="24px" fill="#000000"><g><rect fill="none" height="24" width="24"/></g><g><path d="M20,7h-5V4c0-1.1-0.9-2-2-2h-2C9.9,2,9,2.9,9,4v3H4C2.9,7,2,7.9,2,9v11c0,1.1,0.9,2,2,2h16c1.1,0,2-0.9,2-2V9 C22,7.9,21.1,7,20,7z M9,12c0.83,0,1.5,0.67,1.5,1.5S9.83,15,9,15s-1.5-0.67-1.5-1.5S8.17,12,9,12z M12,18H6v-0.75c0-1,2-1.5,3-1.5 s3,0.5,3,1.5V18z M13,9h-2V4h2V9z M18,16.5h-4V15h4V16.5z M18,13.5h-4V12h4V13.5z"/></g></svg>
